svg/lightbulb_auto.svg

<svg xmlns="http://www.w3.org/2000/svg" viewBox="0 0 24 24"><path d="M9 2C5.13 2 2 5.13 2 9c0 2.38 1.19 4.47 3 5.74V17c0 .55.45 1 1 1h6c.55 0 1-.45 1-1v-2.26c1.81-1.27 3-3.36 3-5.74 0-3.87-3.13-7-7-7M6 21c0 .55.45 1 1 1h4c.55 0 1-.45 1-1v-1H6zm13-8h-2l-3.2 9h1.9l.7-2h3.2l.7 2h1.9zm-2.15 5.65L18 15l1.15 3.65z"/></svg>

<svg xmlns="http://www.w3.org/2000/svg" id="mdi-lightbulb-auto" viewBox="0 0 24 24"><path d="M9 2C5.13 2 2 5.13 2 9C2 11.38 3.19 13.47 5 14.74V17C5 17.55 5.45 18 6 18H12C12.55 18 13 17.55 13 17V14.74C14.81 13.47 16 11.38 16 9C16 5.13 12.87 2 9 2M6 21C6 21.55 6.45 22 7 22H11C11.55 22 12 21.55 12 21V20H6V21M19 13H17L13.8 22H15.7L16.4 20H19.6L20.3 22H22.2L19 13M16.85 18.65L18 15L19.15 18.65H16.85Z" /></svg>
